X:1
T:Mentre Barbara
T:Mentre Barbara
T:Theodorico Sistino
T:Source : Cantiones trium vocum---Hamburgi---P.ab Ohr---1608. Editor : André Vierendeels (01/03/14).
T:Notes : Original clefs :G2, G2, F3 Editorial accidentals above the staff Square bracket indicates ligature
C:Theodorico Sistino
%%score [ 1 2 3 ]
L:1/8
Q:1/4=80
M:4/4
K:C
V:1 treble nm="Soprano 1" snm="S 1"
V:2 treble nm="Soprano 2" snm="S 2"
V:3 treble-8 nm="Tenor" snm="T"
V:1
 e4 A2 e2- | ee c2 d2 f2 | e4 d4 | e4 A2 a2 | e4 c2 d2- | d2 c2 B4 | ^c2 e2 f2 f2- | ff e2 d2 f2 | %8
w: Men- tre Bar-|* ba- ra gl'oc- ch'in-|me di-|ver- te, in|me di- ver-||te, men- tre Bar-|* ba- ra gl'oc- ch'in-|
 e2 d2 c2 BA | B8 |[M:2/4] c4 ::[M:4/4] z2 e2 g2 f2 | e2 A4 c2 | B2 A2 ^G4 | ^G2 e3 dcB | %15
w: me di- ver- * *||te,|tan- to mi|go- do, tan-|to mi go-|do vel stel- la to|
 A2 G2 z2 g2- | gfee d4 | e2 g3 f e2 | e4 e4- | e2 B2 z2 B2 | A6 B2 | c2 c2 A4 | d4 d2 ^c2 | %23
w: vi- so, nel|_ stel- la- to vi-|so, nel stel- la-|to vi-|* so, ch'un|bar- ba-|ro guar- dar|e pa- ra-|
 d2 A2 z4 | d4 c4 | B4 e4- | e8 | c4 B4- | B4 ^c4 | ^c4 d4 | d4 e3 f | g4 e4- | e4 z2 A2 | %33
w: di- so,|e pa-|ra- di-||so, ch'un|_ bar-|ba- ro|guar- * *|* dar,|_ e|
 A2 B2 c4 | d2 d2 e2 e2 |1 B4 ^c4 :|2 B4 ^c4- || c8 |] %38
w: pa- ra- di-|so, e pa- ra-|di- so,|di so.|_|
V:2
 z8 | A4 D2 d2- | dd ^c2 d2 A2 | A3 G F2 f2 | cB AG A2 B2- | B2 A4 ^G2 | A2 ^c2 d2 d2- | %7
w: |ra gl'oc- ch'in|* me di- ver- te,|di- _ _ ver-|te, * * * men- tre|* Bar- *|ba- ra gl'oc- ch'in|
 dd e2 f2 d2 | c2 B2 A4- |"^#" A2 GF ^G4 |[M:2/4] A4 ::[M:4/4] z2 c2 d2 d2 | e4 f2 e2 | e2 c2 B4 | %14
w: * me di- ver te,|tan- to mi|_ _ _ _|go-|do, tan- to|mi go- do|nel stel- la-|
"^-natural" B2 cc G2 A2 | z2 g3 fed | c6 B2 | c2 e3 d c2- | c2 cB c3 B/A/ | G2 ^G2 A2 B2 | c4 d4 | %21
w: to, nel stel- la- to|vi- so, nel stel-|la- *|to vi- so, ch'un|* bar- _ ba- * *|ro guar- dar, ch'un|bar- ba-|
 e4 z2 e2 | f3 f e2 e2 | d4 z4 | f4 e4- | e2 d2 c4- | c2 BA G4 |"^#" A6 GF | ^G4 A4- | A4 z2 A2 | %30
w: ro guar-|dar, e pa- ra-|di-|so, ch'un|* bar- ba-|||* ro|_ guar-|
 B3 B c4 | d4 A4 | z2 B2 c4- | c2 B4 A2 |"^#" A6 GF |1 ^G4 A4 :|2 ^G4 A4- || A8 |] %38
w: dar e pa-|ra- di-|so, (di)-|* so. *|Men- * *|* tre|Bar- ba-|_|
V:3
 z8 | z8 | A4 D2 d2- | dd ^c2 d2 D2 | AG FE F2 D2 | E8 | A,2 A2 D2 d2- | dd ^c2 d2 D2 | A6 GF | %9
w: ||ra gl'oc- ch'in|* me di- ver- te,|men- _ _ _ _ tre|Bar-|ba- ra gl'oc- ch'in|* me di- ver- te,|tan- to *|
 E2 D2 E4 |[M:2/4] A,4 ::[M:4/4] z2 A2 B2 d2 | c3 B/c/ d2 A2 | ^G2 A2 E4 | E2 c3 BAG | F2 C2 C4 | %16
w: mi * *|go-|do, tan- to|mi * * go- do|nel stel- la-|to vi- so, nel stel-|la- to, nel|
 C4 G4 | C4 z2 c2- | cBA^G A4 | E4 z2 E2 | A3 G ^F2 G2 | C4 z2 c2 | d3 d A2 A2 | D4 D4- | D4 A4 | %25
w: stel- la-|to vi-|_ so, ch'un bar- ba-|ro guar-|dar, ch'un bar- ba-|ro guar-|dar, e pa- ra|di- so,|_ ch'un|
 ^G4 A4- | A2 GF E4- | E8- | E4 A,4 | z2 A2 ^F3 F | G2 G2 C2 c2 | c2 B2 A4 | ^G4 z2 A2 | %33
w: bar- ba-|||* ro|guar- dar e|pa- ra di- so,|e pa- ra-|di- so|
 A2 G2 F4- | F4 E4- |1 E4 A,4 :|2 E4 A,4- || A,8 |] %38
w: (di)- so. *|||||

